src/images/svg/sun.svg

<svg width="60" height="60" viewBox="0 0 60 60" fill="none" xmlns="http://www.w3.org/2000/svg">
<path fill-rule="evenodd" clip-rule="evenodd" d="M26.7271 25.3227L27.4083 26.021L19.0348 2.02583L28.6289 24.502L29.0121 25.3997L29.0451 24.4247L29.872 0L30.6989 24.4242L30.732 25.3997L31.115 24.5024L40.7093 2.02583L32.6573 25.0994L32.3357 26.021L33.017 25.3227L50.0829 7.82973L34.2395 26.4365L33.6067 27.1797L56.7269 16.6278L35.2319 28.2549L34.3734 28.7193L35.3473 28.6622L59.744 27.2319L34.5321 30.4318L58.7268 38.2099L35.0087 32.3213L34.0614 32.0861L34.8196 32.7L53.8125 48.079L33.8233 34.0201L33.0249 33.4586L33.5101 34.3049L45.665 55.5065L32.1043 35.176L31.5626 34.364L35.3845 59.4892L29.872 34.68L24.3595 59.4892L28.0346 35.329L28.1814 34.364L27.6401 35.1756L14.0791 55.5065L26.2337 34.3054L26.7191 33.4586L25.9212 34.0198L5.93151 48.079L24.9241 32.7003L25.6827 32.0861L24.7358 32.3211L1.01726 38.2099L24.2827 30.7305L25.212 30.4318L0 27.2319L25.3707 28.7193L24.5126 28.2551L3.01713 16.6278L26.1373 27.1797L9.66116 7.82973L26.7271 25.3227ZM28.471 26.3835L27.2592 27.1338L26.4002 28.2712L26.0102 29.6421L26.1417 31.0614L26.777 32.3373L27.8303 33.2975L29.1594 33.8124H30.5847L31.9137 33.2975L32.9671 32.3373L33.6024 31.0614L33.7339 29.6421L33.3438 28.2712L32.4849 27.1338L31.2731 26.3835L29.872 26.1216L28.471 26.3835Z" fill="#242424"/>
</svg>

<svg xmlns="http://www.w3.org/2000/svg" width="60" height="60" fill="none"><path fill="#242424" fill-rule="evenodd" d="m26.727 25.323.681.698-8.373-23.995 9.594 22.476.383.898.033-.975L29.872 0l.827 24.424.033.976.383-.898 9.594-22.476-8.052 23.073-.321.922.681-.698L50.083 7.83 34.24 26.436l-.633.744 23.12-10.552-21.495 11.627-.859.464.974-.057 24.397-1.43-25.212 3.2 24.195 7.778-23.718-5.889-.948-.235.759.614 18.993 15.379-19.99-14.059-.798-.561.485.846 12.155 21.202-13.56-20.331-.542-.812 3.822 25.125-5.513-24.809-5.512 24.81 3.675-24.161.146-.965-.54.812-13.562 20.33 12.155-21.2.485-.847-.798.56-19.99 14.06L24.925 32.7l.759-.614-.947.235-23.72 5.889 23.266-7.48.929-.298L0 27.232l25.37 1.487-.857-.464L3.017 16.628l23.12 10.552L9.661 7.83zm1.744 1.06-1.212.75-.859 1.138-.39 1.371.132 1.42.635 1.275 1.053.96 1.33.515h1.425l1.329-.514 1.053-.96.635-1.277.132-1.419-.39-1.37-.86-1.138-1.21-.75-1.402-.262z" clip-rule="evenodd"/></svg>
